X: 23
T: Swallowtail, The
Z: R K
S: https://thesession.org/tunes/106#setting54335
R: jig
M: 6/8
L: 1/8
K: Edor
z F |: "Em" GEE BEE | GEE BAG | "D" FDD ADD | dcd AGF | "Em" GEE BEE |
GEE B2 c| "D" dcd AGF |1 "Em" GEE E2 F :|2 "Em" GEE E3 |: "Em" Bcd e2 f | e2 f edB |
Bcd e2 f | edB "D"d3 | "Em" Bcd e2 f | e2 f edB | "D"dcd AGF | "Em"GEE E3 :|

%-------------------- TUNE SEPARATOR --------------------%

